!!!COM: Haydn, Franz Joseph
!!!OTL: String Quartet in E-flat Major
!!!OPS: Opus 33
!!!ONM: No. 2
!!!OMD: Largo sostenuto
!!!OMV: 3
!!!SCT: H III:38
!!!SCA: Thematisch-bibliographisches Werkevererzeichnis (A. van Hoboken)
!!!YOR: Trautwein Edition
!!!ENC: Frances Bennion
!!!CDT: 1732/3/31/-1809/5/31/
!!!CNT: Oesterreich
!!!YEC: Copyright (c) 1994, 2000 Center for Computer Assisted Research in the Humanities
!!!YEM: Rights to all derivative editions reserved.
!!!YEM: Refer to licensing agreement for further details.
!!!YEN: United States of America
**kern	**kern	**kern	**kern
*k[b-e-]	*k[b-e-]	*k[b-e-]	*k[b-e-]
*B-:	*B-:	*B-:	*B-:
*clefF4	*clefC3	*clefG	*clefG
*M3/4	*M3/4	*M3/4	*M3/4
4d	4f	2.r	2.r
4e-	4g	.	.
4d	8.f	.	.
.	16b-	.	.
=2	=2	=2	=2
4G	2e-	2.r	2.r
4A	.	.	.
4B-	4d	.	.
=3	=3	=3	=3
4F	4c	2.r	2.r
4c	4e-	.	.
4B-	8.d	.	.
.	16c	.	.
=4	=4	=4	=4
2F	2c	2.r	2.r
4r	4r	.	.
=5	=5	=5	=5
4D	4B-	2.r	2.r
4E-	4c	.	.
4C	8.e-	.	.
.	16g	.	.
=6	=6	=6	=6
4F	2A	2.r	2.r
4E-	.	.	.
4D	8.B-	.	.
.	16b-	.	.
=7	=7	=7	=7
4E-	8g	2.r	2.r
.	16f	.	.
.	16e-	.	.
4F	8d	.	.
.	8f	.	.
4FF	8A	.	.
.	8c	.	.
=8	=8	=8	=8
4BB-	4B-	2.r	2.r
4D	2r	.	.
4F	.	.	.
=9	=9	=9	=9
4BB-	2.r	4dd	4ff
2r	.	4ee-	4gg
.	.	4dd	8.ff
.	.	.	16bb-
=10	=10	=10	=10
2.r	2.r	4g	2ee-
.	.	4a	.
.	.	4b-	4dd
=11	=11	=11	=11
16F	2.r	4a	4cc
16E	.	.	.
16F	.	.	.
16E	.	.	.
16F	.	4cc	4ee-
16E	.	.	.
16F	.	.	.
16E	.	.	.
16F	.	4b-	8.dd
16E	.	.	.
16F	.	.	.
16E	.	.	16cc
=12	=12	=12	=12
16F	2.r	2f	2cc
16E	.	.	.
16F	.	.	.
16E	.	.	.
16F	.	.	.
16E	.	.	.
16F	.	.	.
16E	.	.	.
16F	.	4r	4r
16F#	.	.	.
16G	.	.	.
16E-	.	.	.
=13	=13	=13	=13
4D	2.r	4d	4b-
2r	.	4e-	4cc
.	.	4c	8.ee-
.	.	.	16gg
=14	=14	=14	=14
2.r	2.r	4f	2a
.	.	4e-	.
.	.	4d	8.b-
.	.	.	16bb-
=15	=15	=15	=15
2.r	2.r	4e-	8gg
.	.	.	16ff
.	.	.	16ee-
.	.	4f	8dd
.	.	.	8ff
.	.	4f	8a
.	.	.	8cc
=16	=16	=16	=16
2.r	2.r	16B-	4b-
.	.	16A	.
.	.	16B-	.
.	.	16A	.
.	.	16B-	2r
.	.	16A	.
.	.	16B-	.
.	.	16A	.
.	.	16B-	.
.	.	16A	.
.	.	16B-	.
.	.	16c	.
=17	=17	=17	=17
8B-	8d	8d 8dd	8gg 8b-
8r	8r	8r	8r
8A	8c	8ee- 8e-	8ff# 8cc
4.r	4.r	4.r	4.r
=18	=18	=18	=18
8F#	8d	8aa 8cc	8ccc 8dd
8r	8r	8r	8r
8G	8d	8b- 8gg	8bb- 8dd
4.r	4.r	4.r	4.r
=19	=19	=19	=19
4r	2.r	4.dd-	4.bb-
8E	.	.	.
8F	.	8cc	8aa
8B-	.	8b-	8gg
8B	.	8a	8ff
=20	=20	=20	=20
16c	2.r	4a	4ff
16B	.	.	.
16c	.	.	.
16B	.	.	.
16c	.	4g	4ee
16B	.	.	.
16c	.	.	.
16B	.	.	.
16c	.	4r	4r
16B-	.	.	.
16A	.	.	.
16G	.	.	.
=21	=21	=21	=21
8F	8c	8a	8ff
4F	4c	4a	4ff
4F	4c	4a	4ff
16F	8c	16a	16ff
16G	.	16b-	16ee
=22	=22	=22	=22
8G	8c	8b-	8ee
8G	8c	8b-	8ee
8r	8r	8r	8r
8G	8c	8b-	8ee
8r	8r	8r	8r
8G	8c	8b-	8ee
=23	=23	=23	=23
8E	8c	8gg	8bb-
4E	4c	4gg	4bb-
4E	4c	4gg	4bb-
16E	8c	16gg	16bb-
16F	.	16ff	16aa
=24	=24	=24	=24
8F	8c	8ff	8aa
8F	8c	8ff	8aa
8r	8r	8r	8r
8F	8c	8ff	8aa
8r	8r	8r	8r
8F	8c	8ff	8aa
=25	=25	=25	=25
4BB-	4B-	8bb-	8ddd
.	.	8.bb-	8.ddd
4B-	4b-	.	.
.	.	16aa	16ccc#
.	.	16bb-	16ddd
.	.	16ff#	16aa
4r	4r	16gg	16bb-
.	.	16b-	16gg
.	.	16a	16aa
.	.	16g	16bb-
=26	=26	=26	=26
2r	2r	16a	16ccc
.	.	16g#	16bb
.	.	16a	16ccc
.	.	16g#	16bb
.	.	8a	8ccc
.	.	4r	6..r
8.r	8.r	.	.
.	.	16r	.
.	.	.	48r
16E	16c	16g	16bb-
=27	=27	=27	=27
8F	8c	16g	16bb-
.	.	16f	16aa
8BB-	8d	16dd	16bb-
.	.	16b-	16gg
2C	4c	4a	4ff
.	4e	4b-	8.gg
.	.	.	16ff
=28	=28	=28	=28
4BB-	2.r	8bb-	8ddd
.	.	8.bb-	8.ddd
4B-	.	.	.
.	.	16aa	16ccc#
.	.	16bb-	16ddd
.	.	16ff#	16aa
4r	.	16gg	16bb-
.	.	16b-	16gg
.	.	16a	16aa
.	.	16g	16bb-
=29	=29	=29	=29
2r	2r	16a	16ccc
.	.	16g#	16bb
.	.	16a	16ccc
.	.	16g#	16bb
.	.	16a	16ccc
.	.	16aa	16ccc
.	.	16bb-	16ddd
.	.	16gg	16eee
16r	16r	16aa	[4fff
16F	16a	16aa	.
16G	16b-	16gg	.
16A	16cc	[16ff	.
=30	=30	=30	=30
4B-	4dd	16ff]	16fff]
.	.	16bb-	16ddd
.	.	16aa	16ccc
.	.	16gg	16bb-
4c	4cc	8ff	8aa
.	.	8a	8ccc
4C	8b-	8g	8ee
.	8e	8b-	8gg
=31	=31	=31	=31
4F	4f	4a	16ff
.	.	.	16ee
.	.	.	16ff
.	.	.	16ee
2r	2r	2r	16ff
.	.	.	16ee
.	.	.	16ff
.	.	.	16ee
.	.	.	16ff
.	.	.	16ee-
.	.	.	16dd
.	.	.	16cc
=32	=32	=32	=32
2.r	4d	4f	16b-
.	.	.	16a
.	.	.	16b-
.	.	.	16a
.	4e-	4g	16b-
.	.	.	16a
.	.	.	16b-
.	.	.	16a
.	4d	8.f	16b-
.	.	.	16a
.	.	.	16b-
.	.	16b-	16a
=33	=33	=33	=33
2.r	4G	2e-	16b-
.	.	.	16a
.	.	.	16b-
.	.	.	16dd
.	4A	.	16cc
.	.	.	16b-
.	.	.	16cc
.	.	.	16a
.	4B-	4d	16f
.	.	.	16b-
.	.	.	16dd
.	.	.	16ff
=34	=34	=34	=34
2.r	4A	4c	[6..ff
.	4c	4e-	.
.	.	.	48ff]
.	.	.	16ee-
.	.	.	16cc
.	.	.	16a
.	4B-	8.d	8.b-
.	.	16c	16dd
=35	=35	=35	=35
2.r	2F	2c	16ff
.	.	.	16ee
.	.	.	16ff
.	.	.	16ee
.	.	.	16ff
.	.	.	16ee
.	.	.	16ff
.	.	.	16ee
.	4r	4r	16ff
.	.	.	16ff#
.	.	.	16gg
.	.	.	16aa
=36	=36	=36	=36
2.r	4D	4B-	16bb-
.	.	.	16aa
.	.	.	16bb-
.	.	.	16aa-
.	4E-	4c	16gg
.	.	.	16ff#
.	.	.	16gg
.	.	.	16ff
.	4C	8.e-	16ee-
.	.	.	16dd
.	.	.	16ee-
.	.	16g	16cc
=37	=37	=37	=37
2.r	4F	2A	16cc
.	.	.	16b
.	.	.	16cc
.	.	.	16b
.	4E-	.	16cc
.	.	.	16ee-
.	.	.	16dd
.	.	.	16cc
.	4D	8.B-	16b-
.	.	.	16ff
.	.	.	16ff
.	.	16b-	16ff
=38	=38	=38	=38
2.r	4E-	8g	8ee-
.	.	16f	16dd
.	.	16e-	16cc
.	4F	8d	8b-
.	.	8f	8dd
.	4F	8A	8cc
.	.	8c	8a
=39	=39	=39	=39
16B-	4B-	4B-	4b-
16A	.	.	.
16B-	.	.	.
16A	.	.	.
16B-	2r	2r	2r
16A	.	.	.
16B-	.	.	.
16A	.	.	.
16B-	.	.	.
16A-	.	.	.
16G	.	.	.
16F	.	.	.
=40	=40	=40	=40
8E-	8B-	8g	8ee-
4E-	4B-	4g	4ee-
4E-	4B-	4g	4ee-
16E-	8B-	16g	16ee-
16F	.	16a-	16dd
=41	=41	=41	=41
8F	8B-	8a-	8dd
8F	8B-	8a-	8dd
8r	8r	8r	8r
8F	8B-	8a-	8dd
8r	8r	8r	8r
8F	8B-	8a-	8dd
=42	=42	=42	=42
8D	8B-	8ff	8aa-
4D	4B-	4ff	4aa-
4D	4B-	4ff	4aa-
16D	8B-	16ff	16aa-
16E-	.	16ee-	16gg
=43	=43	=43	=43
8E-	8B-	8ee-	8gg
8E-	8B-	8ee-	8gg
8r	8r	8r	8r
8E-	8B-	8ee-	8gg
8r	8r	8r	8r
8E-	8B-	8ee-	8gg
=44	=44	=44	=44
8e-	8e-	8g	8ccc
8r	8r	8r	8.ccc
8e-	8e-	8g	.
.	.	.	16bb
8r	8r	8r	16ccc
.	.	.	16bb
4e-	4e-	4g	16ccc
.	.	.	16eee-
.	.	.	16ddd
.	.	.	16ccc
=45	=45	=45	=45
2d	2f	2a-	4ccc
.	.	.	16bb
.	.	.	16ccc
.	.	.	16ddd
.	.	.	16eee-
4r	4r	4r	8fff
.	.	.	16r
.	.	.	16bb
=46	=46	=46	=46
8e-	8e-	8g	8ccc
8r	8r	8r	8.ccc
8e-	8e-	8g	.
.	.	.	16bb
8r	8r	8r	16ccc
.	.	.	16bb
4e-	[4f	4a	16ccc
.	.	.	16eee-
.	.	.	16ddd
.	.	.	16ccc
=47	=47	=47	=47
2d	2f]	2b-	16bb-
.	.	.	16aa
.	.	.	16bb-
.	.	.	16aa
.	.	.	16bb-
.	.	.	16ccc
.	.	.	16ddd
.	.	.	16eee-
4r	4r	4r	8fff
.	.	.	16r
.	.	.	16ddd
=48	=48	=48	=48
8e-	8g	8b-	16ddd
.	.	.	16ccc
8r	8r	8r	8.ccc
8e	8g	8b-	.
.	.	.	16ddd-
8r	8r	8r	8.ddd-
4e	4g	4b-	.
.	.	.	16ddd-
.	.	.	16ccc
.	.	.	16bb-
=49	=49	=49	=49
[2.f	2f	4f	16bb-
.	.	.	16aa
.	.	.	16gg
.	.	.	16ff
.	.	4a	4ff
.	4g	4b-	16ee
.	.	.	16ddd
.	.	.	16ccc
.	.	.	16ee
=50	=50	=50	=50
2.f_	2f	2a	8ff
.	.	.	16ee
.	.	.	16ff
.	.	.	4ff
.	4g	4b-	16ee
.	.	.	16ddd
.	.	.	16ccc
.	.	.	16ee
=51	=51	=51	=51
4f]	16f	4a	4ff
.	16e	.	.
.	16f	.	.
.	16e	.	.
2r	16f	2r	2r
.	16e	.	.
.	16f	.	.
.	16e	.	.
.	16f	.	.
.	16e-	.	.
.	16d	.	.
.	16c	.	.
=52	=52	=52	=52
4BB-	16B-	4d	4ff
.	16A	.	.
.	16B-	.	.
.	16A	.	.
4r	16B-	4e-	4gg
.	16A	.	.
.	16B-	.	.
.	16A	.	.
4BB-	16B-	4d	8.ff
.	16A	.	.
.	16B-	.	.
.	16A	.	16bb-
=53	=53	=53	=53
4GG	16B-	4d	2ee-
.	16A	.	.
.	16B-	.	.
.	16d	.	.
4AA	16c	4c	.
.	16B-	.	.
.	16c	.	.
.	16A	.	.
4BB-	16F	4B-	4dd
.	16B-	.	.
.	16d	.	.
.	16f	.	.
=54	=54	=54	=54
[2.FF	[4f	4A	4cc
.	16f]	4c	4ee-
.	16e-	.	.
.	16c	.	.
.	16A	.	.
.	8B-	4B-	8.dd
.	8d	.	.
.	.	.	16cc
=55	=55	=55	=55
4FF]	16f	2A	2cc
.	16e	.	.
.	16f	.	.
.	16e	.	.
2r	16f	.	.
.	16e	.	.
.	16f	.	.
.	16e	.	.
.	16f	4r	4r
.	16f#	.	.
.	16g	.	.
.	16a	.	.
=56	=56	=56	=56
4D	16b-	4f	4b-
.	16a	.	.
.	16b-	.	.
.	16a-	.	.
4E-	16g	2g	4cc
.	16f#	.	.
.	16g	.	.
.	16f	.	.
4C	16e-	.	8.ee-
.	16d	.	.
.	16e-	.	.
.	16d	.	16gg
=57	=57	=57	=57
4F	16c	2f	2a
.	16B	.	.
.	16c	.	.
.	16B	.	.
4E-	16c	.	.
.	16e-	.	.
.	16d	.	.
.	16c	.	.
4D	16B-	8f	8.b-
.	16f	.	.
.	16f	8r	.
.	16f	.	16bb-
=58	=58	=58	=58
4E-	8e-	4.r	8gg
.	16d	.	16ff
.	16c	.	16ee-
4F	8B-	.	8dd
.	8d	8B-	8ff
4FF	8c	8c	8a
.	8A	8e-	8cc
=59	=59	=59	=59
4GG	4B-	4d	4b-
2r	2r	2r	2r
=60	=60	=60	=60
4G	4.B-	4.b-	4ee-
8F	.	.	8dd
4.r	4.r	4.r	4.r
=61	=61	=61	=61
8BB-	8B- 8f	8ff 8b- 8d	8aa- 8b- 8d
8r	8r	8r	8r
8E-	8e- 8G	8gg 8e- 8b-	8e- 8b- 8gg
4.r	4.r	4.r	4.r
=62	=62	=62	=62
4r	2r	4.a-	4.ff
8BB	.	.	.
8C	.	8g	8ee-
8D	8r	8f	8dd
8E-	8g	8e-	8cc
=63	=63	=63	=63
4.F	4.f	4d	4b-
.	.	4c	8a
8E-	8A	.	8cc
8D	8B-	4r	8dd
8C	8c	.	8ee-
=64	=64	=64	=64
2.BB-	4d	16b-	4ff
.	.	16a	.
.	.	16b-	.
.	.	16a	.
.	4e-	16b-	4gg
.	.	16a	.
.	.	16b-	.
.	.	16a	.
.	4d	16b-	8.ff
.	.	16a	.
.	.	16b-	.
.	.	16a	16bb-
=65	=65	=65	=65
4GG	4d	16b-	2ee-
.	.	16a	.
.	.	16b-	.
.	.	16dd	.
4AA	4c	16cc	.
.	.	16b-	.
.	.	16cc	.
.	.	16a	.
4BB-	4B-	16f	4dd
.	.	16b-	.
.	.	16dd	.
.	.	16b-	.
=66	=66	=66	=66
4E-	4e-	4g	12cc
.	.	.	12ee-
.	.	.	12gg
4F	4f	4d	4b-
4FF	4A	4e-	8.cc
.	.	.	16b-
=67	=67	=67	=67
16BB-	4B-	4d	4b-
16AA	.	.	.
16BB-	.	.	.
16AA	.	.	.
16BB-	2r	4r	4r
16AA	.	.	.
16BB-	.	.	.
16AA	.	.	.
8BB-	.	16g	16ee-
.	.	16f#	16dd
8BB-	.	16g	16ee-
.	.	16e-	16a
=68	=68	=68	=68
[2.BB-	16f	16d	16b-
.	16g-	16e-	16a
.	16f	16d	16b-
.	16g-	16e-	16a
.	8f	16d	16b-
.	.	16d	16b
.	4.r	16e-	16cc
.	.	16f	16dd
.	.	16g	16ee-
.	.	16f#	16dd
.	.	16g	16ee-
.	.	16e-	16a
=69	=69	=69	=69
2.BB-_	16f	16d	16b-
.	16g-	16e-	16a
.	16f	16d	16b-
.	16g-	16e-	16a
.	8f	16d	16b-
.	.	16d	16b
.	4.r	16e-	16cc
.	.	16f	16dd
.	.	16g	16ee-
.	.	16f#	16dd
.	.	16g	16ee-
.	.	16e-	16a
=70	=70	=70	=70
4BB-]	2.r	4e-	4cc
2r	.	8d	8b-
.	.	4.r	4.r
=71	=71	=71	=71
2.r	2.r	4cc	4ee-
.	.	8b-	8dd
.	.	4.r	4.r
=72	=72	=72	=72
4F	4c	4ee-	4aa
8BB-	8d	8dd	8bb-
4.r	4.r	4.r	4.r
==	==	==	==
*-	*-	*-	*-
!!!RWG1: This file contains only pitch and duration data.
!!!RWG2: Transposing instruments are not transposed.
!!!RWG3: Spines may have incompatible meters.
!!!RWG4: Durations of rests and tied notes may be interpreted.
!!!RWG: Key is interpreted using the Humdrum key tool.
!!!GTL: 6 Quators ("Jungfernquartette")
!!!OPT: The Joke
!!!AFT: stage1
!!!END: 1997/04/15
!!!KEY: 3628840614
!!!EMD: Converted from MuseData to Humdrum Dec 16, 2000, by Andreas Kornstaedt using muse2kern.
!!!EMD: Manual editing by Craig Sapp, Nov 2001
